;FLAVOR:Marlin
;TIME:7488
;Filament used: 2.72509m
;Layer height: 0.12
;MINX:91.804
;MINY:91.824
;MINZ:0.12
;MAXX:160.628
;MAXY:144.422
;MAXZ:18.48
;Generated with Cura_SteamEngine 4.7.1
M140 S60
M105
M190 S60
M104 S200
M105
M109 S200
M82 ;absolute extrusion mode
; Ender 3 Custom Start G-code
G92 E0 ; Reset Extruder
G28 ; Home all axes
G1 Z2.0 F3000 ; Move Z Axis up little to prevent scratching of Heat Bed
G1 X0.1 Y20 Z0.3 F5000.0 ; Move to start position
G1 X0.1 Y200.0 Z0.3 F1500.0 E15 ; Draw the first line
G1 X0.4 Y200.0 Z0.3 F5000.0 ; Move to side a little
G1 X0.4 Y20 Z0.3 F1500.0 E30 ; Draw the second line
G92 E0 ; Reset Extruder
G1 Z2.0 F3000 ; Move Z Axis up little to prevent scratching of Heat Bed
G1 X5 Y20 Z0.3 F5000.0 ; Move over to prevent blob squish
G92 E0
G92 E0
G1 F1500 E-6.5
;LAYER_COUNT:154
;LAYER:0
M107
G0 F6000 X125.651 Y102.183 Z0.12
;TYPE:SKIRT
G1 F1500 E0
G1 F1200 X126.141 Y101.58 E0.01551
G1 X126.258 Y101.463 E0.01881
G1 X126.675 Y101.103 E0.0298
G1 X127.139 Y100.806 E0.0408
G1 X127.642 Y100.58 E0.0518
G1 X128.172 Y100.429 E0.0628
G1 X128.945 Y100.35 E0.0783
G1 X156.711 Y100.35 E0.6324
G1 X157.261 Y100.39 E0.64341
G1 X157.799 Y100.509 E0.65441
G1 X158.314 Y100.705 E0.6654
G1 X158.795 Y100.973 E0.67639
G1 X159.398 Y101.463 E0.6919
G1 X159.515 Y101.58 E0.6952
G1 X159.875 Y101.997 E0.70619
G1 X160.172 Y102.461 E0.71719
G1 X160.398 Y102.964 E0.72819
G1 X160.549 Y103.494 E0.73919
G1 X160.628 Y104.267 E0.75469
G1 X160.628 Y129.233 E1.25292
G1 X160.588 Y129.783 E1.26392
G1 X160.469 Y130.321 E1.27492
G1 X160.273 Y130.836 E1.28591
G1 X160.005 Y131.317 E1.2969
G1 X159.515 Y131.92 E1.31241
G1 X159.398 Y132.037 E1.31571
G1 X158.981 Y132.397 E1.3267
G1 X158.517 Y132.694 E1.3377
G1 X158.014 Y132.92 E1.3487
G1 X157.503 Y133.066 E1.35931
G1 X157.215 Y133.42 E1.36842
G1 X157.098 Y133.537 E1.37172
G1 X156.681 Y133.897 E1.38271
G1 X156.217 Y134.194 E1.39371
G1 X155.714 Y134.42 E1.40471
G1 X155.184 Y134.571 E1.41571
G1 X154.411 Y134.65 E1.43121
G1 X148.245 Y134.65 E1.55426
G1 X147.695 Y134.61 E1.56527
G1 X147.157 Y134.491 E1.57626
G1 X146.642 Y134.295 E1.58726
G1 X146.161 Y134.027 E1.59825
G1 X145.558 Y133.537 E1.61375
G1 X145.441 Y133.42 E1.61706
G1 X145.208 Y133.15 E1.62417
G1 X140.434 Y133.15 E1.71944
G1 X140.215 Y133.42 E1.72638
G1 X140.098 Y133.537 E1.72968
G1 X139.681 Y133.897 E1.74068
G1 X139.217 Y134.194 E1.75167
G1 X138.714 Y134.42 E1.76268
G1 X138.184 Y134.571 E1.77367
G1 X137.411 Y134.65 E1.78918
G1 X131.245 Y134.65 E1.91223
G1 X130.695 Y134.61 E1.92323
G1 X130.157 Y134.491 E1.93423
G1 X129.642 Y134.295 E1.94523
G1 X129.161 Y134.027 E1.95621
G1 X128.558 Y133.537 E1.97172
G1 X128.441 Y133.42 E1.97502
G1 X128.121 Y133.049 E1.9848
G1 X127.857 Y132.991 E1.99019
G1 X127.342 Y132.795 E2.00119
G1 X126.861 Y132.527 E2.01218
G1 X126.258 Y132.037 E2.02768
G1 X126.141 Y131.92 E2.03099
G1 X125.781 Y131.503 E2.04198
G1 X125.484 Y131.039 E2.05297
G1 X125.258 Y130.536 E2.06398
G1 X125.107 Y130.006 E2.07498
G1 X125.028 Y129.233 E2.09048
G1 X125.028 Y104.267 E2.58871
G1 X125.068 Y103.717 E2.59971
G1 X125.187 Y103.179 E2.61071
G1 X125.383 Y102.664 E2.6217
G1 X125.651 Y102.183 E2.63269
G0 F6000 X126.048 Y102.309
G1 F1200 X126.424 Y101.863 E2.64433
G1 X126.541 Y101.746 E2.64763
G1 X126.937 Y101.407 E2.65804
G1 X127.379 Y101.132 E2.66843
G1 X127.859 Y100.928 E2.67883
G1 X128.364 Y100.8 E2.68923
G1 X128.945 Y100.75 E2.70087
G1 X156.711 Y100.75 E3.25497
G1 X157.231 Y100.79 E3.26538
G1 X157.738 Y100.909 E3.27577
G1 X158.221 Y101.104 E3.28616
G1 X158.669 Y101.37 E3.29656
G1 X159.115 Y101.746 E3.3082
G1 X159.232 Y101.863 E3.3115
G1 X159.571 Y102.259 E3.32191
G1 X159.846 Y102.701 E3.3323
G1 X160.05 Y103.181 E3.3427
G1 X160.178 Y103.686 E3.3531
G1 X160.228 Y104.267 E3.36474
G1 X160.228 Y129.233 E3.86296
G1 X160.188 Y129.753 E3.87337
G1 X160.069 Y130.26 E3.88376
G1 X159.874 Y130.743 E3.89416
G1 X159.608 Y131.191 E3.90455
G1 X159.232 Y131.637 E3.9162
G1 X159.115 Y131.754 E3.9195
G1 X158.719 Y132.093 E3.9299
G1 X158.277 Y132.368 E3.94029
G1 X157.797 Y132.572 E3.9507
G1 X157.303 Y132.697 E3.96087
G1 X156.932 Y133.137 E3.97235
G1 X156.815 Y133.254 E3.97565
G1 X156.419 Y133.593 E3.98606
G1 X155.977 Y133.868 E3.99644
G1 X155.497 Y134.072 E4.00685
G1 X154.992 Y134.2 E4.01725
G1 X154.411 Y134.25 E4.02889
G1 X148.245 Y134.25 E4.15194
G1 X147.725 Y134.21 E4.16234
G1 X147.218 Y134.091 E4.17274
G1 X146.735 Y133.896 E4.18313
G1 X146.287 Y133.63 E4.19353
G1 X145.841 Y133.254 E4.20517
G1 X145.724 Y133.137 E4.20847
G1 X145.393 Y132.75 E4.21863
G1 X140.258 Y132.75 E4.32111
G1 X139.932 Y133.137 E4.33121
G1 X139.815 Y133.254 E4.33451
G1 X139.419 Y133.593 E4.34491
G1 X138.977 Y133.868 E4.3553
G1 X138.497 Y134.072 E4.36571
G1 X137.992 Y134.2 E4.3761
G1 X137.411 Y134.25 E4.38774
G1 X131.245 Y134.25 E4.51079
G1 X130.725 Y134.21 E4.5212
G1 X130.218 Y134.091 E4.53159
G1 X129.735 Y133.896 E4.54199
G1 X129.287 Y133.63 E4.55238
G1 X128.841 Y133.254 E4.56402
G1 X128.724 Y133.137 E4.56733
G1 X128.385 Y132.741 E4.57773
G1 X128.356 Y132.694 E4.57883
G1 X127.918 Y132.591 E4.58781
G1 X127.435 Y132.396 E4.59821
G1 X126.987 Y132.13 E4.6086
G1 X126.541 Y131.754 E4.62024
G1 X126.424 Y131.637 E4.62355
G1 X126.085 Y131.241 E4.63395
G1 X125.81 Y130.799 E4.64434
G1 X125.606 Y130.319 E4.65475
G1 X125.478 Y129.814 E4.66514
G1 X125.428 Y129.233 E4.67678
G1 X125.428 Y104.267 E5.175
G1 X125.468 Y103.747 E5.18541
G1 X125.587 Y103.24 E5.1958
G1 X125.782 Y102.757 E5.2062
G1 X126.048 Y102.309 E5.2166
G0 F6000 X126.446 Y102.443
G1 F1200 X126.707 Y102.146 E5.22449
G1 X126.824 Y102.029 E5.22779
G1 X127.197 Y101.712 E5.23756
G1 X127.617 Y101.46 E5.24733
G1 X128.072 Y101.28 E5.2571
G1 X128.55 Y101.176 E5.26686
G1 X128.945 Y101.15 E5.27476
G1 X156.711 Y101.15 E5.82886
G1 X157.199 Y101.19 E5.83863
G1 X157.674 Y101.309 E5.8484
G1 X158.123 Y101.503 E5.85816
G1 X158.535 Y101.768 E5.86794
G1 X158.832 Y102.029 E5.87583
G1 X158.949 Y102.146 E5.87913
G1 X159.266 Y102.519 E5.8889
G1 X159.518 Y102.939 E5.89867
G1 X159.698 Y103.394 E5.90844
G1 X159.802 Y103.872 E5.9182
G1 X159.828 Y104.267 E5.9261
G1 X159.828 Y129.233 E6.42432
G1 X159.788 Y129.721 E6.4341
G1 X159.669 Y130.196 E6.44387
G1 X159.475 Y130.645 E6.45363
G1 X159.21 Y131.057 E6.4634
G1 X158.949 Y131.354 E6.47129
G1 X158.832 Y131.471 E6.4746
G1 X158.459 Y131.788 E6.48436
G1 X158.039 Y132.04 E6.49414
G1 X157.584 Y132.22 E6.5039
G1 X157.106 Y132.324 E6.51367
G1 X157.058 Y132.327 E6.51463
G1 X156.91 Y132.557 E6.52008
G1 X156.649 Y132.854 E6.52797
G1 X156.532 Y132.971 E6.53128
G1 X156.159 Y133.288 E6.54105
G1 X155.739 Y133.54 E6.55082
G1 X155.284 Y133.72 E6.56058
G1 X154.806 Y133.824 E6.57035
G1 X154.411 Y133.85 E6.57825
G1 X148.245 Y133.85 E6.7013
G1 X147.757 Y133.81 E6.71107
G1 X147.282 Y133.691 E6.72084
G1 X146.833 Y133.497 E6.7306
G1 X146.421 Y133.232 E6.74038
G1 X146.124 Y132.971 E6.74827
G1 X146.007 Y132.854 E6.75157
G1 X145.69 Y132.481 E6.76134
G1 X145.611 Y132.35 E6.76439
G1 X140.043 Y132.35 E6.8755
G1 X139.91 Y132.557 E6.88041
G1 X139.649 Y132.854 E6.88831
G1 X139.532 Y132.971 E6.89161
G1 X139.159 Y133.288 E6.90138
G1 X138.739 Y133.54 E6.91115
G1 X138.284 Y133.72 E6.92092
G1 X137.806 Y133.824 E6.93068
G1 X137.411 Y133.85 E6.93858
G1 X131.245 Y133.85 E7.06163
G1 X130.757 Y133.81 E7.0714
G1 X130.282 Y133.691 E7.08117
G1 X129.833 Y133.497 E7.09093
G1 X129.421 Y133.232 E7.10071
G1 X129.124 Y132.971 E7.1086
G1 X129.007 Y132.854 E7.1119
G1 X128.69 Y132.481 E7.12167
G1 X128.594 Y132.321 E7.12539
G1 X128.457 Y132.31 E7.12813
G1 X127.982 Y132.191 E7.13791
G1 X127.533 Y131.997 E7.14767
G1 X127.121 Y131.732 E7.15744
G1 X126.824 Y131.471 E7.16533
G1 X126.707 Y131.354 E7.16863
G1 X126.39 Y130.981 E7.1784
G1 X126.138 Y130.561 E7.18818
G1 X125.958 Y130.106 E7.19794
G1 X125.854 Y129.628 E7.2077
G1 X125.828 Y129.233 E7.2156
G1 X125.828 Y104.267 E7.71383
G1 X125.868 Y103.779 E7.7236
G1 X125.987 Y103.304 E7.73337
G1 X126.181 Y102.855 E7.74313
G1 X126.446 Y102.443 E7.75291
G0 F6000 X126.58 Y102.961
G1 F1200 X126.99 Y102.429 E7.76631
G1 X127.107 Y102.312 E7.76961
G1 X127.456 Y102.019 E7.77871
G1 X127.851 Y101.792 E7.7878
G1 X128.279 Y101.637 E7.79688
G1 X128.945 Y101.55 E7.81029
G1 X156.711 Y101.55 E8.36439
G1 X157.165 Y101.59 E8.37348
G1 X157.605 Y101.708 E8.38257
G1 X158.017 Y101.902 E8.39166
G1 X158.549 Y102.312 E8.40506
G1 X158.666 Y102.429 E8.40837
G1 X158.959 Y102.778 E8.41746
G1 X159.186 Y103.173 E8.42655
G1 X159.341 Y103.601 E8.43564
G1 X159.428 Y104.267 E8.44904
G1 X159.428 Y129.233 E8.94726
G1 X159.388 Y129.687 E8.95636
G1 X159.27 Y130.127 E8.96545
G1 X159.076 Y130.539 E8.97454
G1 X158.666 Y131.071 E8.98794
G1 X158.549 Y131.188 E8.99124
G1 X158.2 Y131.481 E9.00034
G1 X157.805 Y131.708 E9.00943
G1 X157.377 Y131.863 E9.01851
G1 X156.825 Y131.935 E9.02962
G1 X156.776 Y132.039 E9.03192
G1 X156.366 Y132.571 E9.04532
G1 X156.249 Y132.688 E9.04862
G1 X155.9 Y132.981 E9.05771
G1 X155.505 Y133.208 E9.06681
G1 X155.077 Y133.363 E9.07589
G1 X154.411 Y133.45 E9.08929
G1 X148.245 Y133.45 E9.21234
G1 X147.791 Y133.41 E9.22144
G1 X147.351 Y133.292 E9.23053
G1 X146.939 Y133.098 E9.23962
G1 X146.407 Y132.688 E9.25302
G1 X146.29 Y132.571 E9.25632
G1 X145.997 Y132.222 E9.26542
G1 X145.841 Y131.95 E9.27167
G1 X139.818 Y131.95 E9.39187
G1 X139.776 Y132.039 E9.39383
G1 X139.366 Y132.571 E9.40724
G1 X139.249 Y132.688 E9.41054
G1 X138.9 Y132.981 E9.41963
G1 X138.505 Y133.208 E9.42872
G1 X138.077 Y133.363 E9.43781
G1 X137.411 Y133.45 E9.45121
G1 X131.245 Y133.45 E9.57426
G1 X130.791 Y133.41 E9.58336
G1 X130.351 Y133.292 E9.59245
G1 X129.939 Y133.098 E9.60154
G1 X129.407 Y132.688 E9.61494
G1 X129.29 Y132.571 E9.61824
G1 X128.997 Y132.222 E9.62733
G1 X128.835 Y131.94 E9.63382
G1 X128.491 Y131.91 E9.64072
G1 X128.051 Y131.792 E9.64981
G1 X127.639 Y131.598 E9.65889
G1 X127.107 Y131.188 E9.6723
G1 X126.99 Y131.071 E9.6756
G1 X126.697 Y130.722 E9.68469
G1 X126.47 Y130.327 E9.69379
G1 X126.315 Y129.899 E9.70287
G1 X126.228 Y129.233 E9.71627
G1 X126.228 Y104.267 E10.2145
G1 X126.268 Y103.813 E10.22359
G1 X126.386 Y103.373 E10.23268
G1 X126.58 Y102.961 E10.24177
G0 F6000 X126.979 Y103.076
G1 F1200 X127.272 Y102.711 E10.25111
G1 X127.389 Y102.594 E10.25441
G1 X127.713 Y102.328 E10.26278
G1 X128.08 Y102.127 E10.27113
G1 X128.48 Y102 E10.2795
G1 X128.945 Y101.95 E10.28884
G1 X156.711 Y101.95 E10.84294
G1 X157.128 Y101.99 E10.8513
G1 X157.53 Y102.108 E10.85966
G1 X157.902 Y102.301 E10.86802
G1 X158.267 Y102.594 E10.87736
G1 X158.384 Y102.711 E10.88066
G1 X158.65 Y103.035 E10.88903
G1 X158.851 Y103.402 E10.89738
G1 X158.978 Y103.802 E10.90576
G1 X159.028 Y104.267 E10.91509
G1 X159.028 Y129.233 E11.41331
G1 X158.988 Y129.65 E11.42167
G1 X158.87 Y130.052 E11.43003
G1 X158.677 Y130.424 E11.4384
G1 X158.384 Y130.789 E11.44774
G1 X158.267 Y130.906 E11.45104
G1 X157.943 Y131.172 E11.4594
G1 X157.576 Y131.373 E11.46775
G1 X157.176 Y131.5 E11.47613
G1 X156.711 Y131.55 E11.48546
G1 X156.571 Y131.55 E11.48826
G1 X156.377 Y131.924 E11.49666
G1 X156.084 Y132.289 E11.50601
G1 X155.967 Y132.406 E11.50931
G1 X155.643 Y132.672 E11.51767
G1 X155.276 Y132.873 E11.52602
G1 X154.876 Y133 E11.5344
G1 X154.411 Y133.05 E11.54373
G1 X148.245 Y133.05 E11.66678
G1 X147.828 Y133.01 E11.67514
G1 X147.426 Y132.892 E11.6835
G1 X147.054 Y132.699 E11.69186
G1 X146.689 Y132.406 E11.70121
G1 X146.572 Y132.289 E11.70451
G1 X146.306 Y131.965 E11.71287
G1 X146.105 Y131.598 E11.72122
G1 X146.09 Y131.55 E11.72223
G1 X139.571 Y131.55 E11.85232
G1 X139.377 Y131.924 E11.86073
G1 X139.084 Y132.289 E11.87007
G1 X138.967 Y132.406 E11.87337
G1 X138.643 Y132.672 E11.88174
G1 X138.276 Y132.873 E11.89009
G1 X137.876 Y133 E11.89846
G1 X137.411 Y133.05 E11.9078
G1 X131.245 Y133.05 E12.03084
G1 X130.828 Y133.01 E12.0392
G1 X130.426 Y132.892 E12.04756
G1 X130.054 Y132.699 E12.05593
G1 X129.689 Y132.406 E12.06527
G1 X129.572 Y132.289 E12.06857
G1 X129.306 Y131.965 E12.07694
G1 X129.105 Y131.598 E12.08529
G1 X129.09 Y131.55 E12.08629
G1 X128.945 Y131.55 E12.08918
G1 X128.528 Y131.51 E12.09754
G1 X128.126 Y131.392 E12.1059
G1 X127.754 Y131.199 E12.11427
G1 X127.389 Y130.906 E12.12361
G1 X127.272 Y130.789 E12.12691
G1 X127.006 Y130.465 E12.13528
G1 X126.805 Y130.098 E12.14363
G1 X126.678 Y129.698 E12.152
G1 X126.628 Y129.233 E12.16133
G1 X126.628 Y104.267 E12.65956
G1 X126.668 Y103.85 E12.66792
G1 X126.786 Y103.448 E12.67628
G1 X126.979 Y103.076 E12.68464
G0 F6000 X127.376 Y103.203
G1 F1200 X127.555 Y102.994 E12.69013
G1 X127.672 Y102.877 E12.69344
G1 X127.967 Y102.639 E12.701
G1 X128.305 Y102.468 E12.70856
G1 X128.671 Y102.371 E12.71612
G1 X128.945 Y102.35 E12.7216
G1 X156.711 Y102.35 E13.2757
G1 X157.088 Y102.39 E13.28327
G1 X157.448 Y102.508 E13.29083
G1 X157.775 Y102.698 E13.29837
G1 X157.984 Y102.877 E13.30386
G1 X158.101 Y102.994 E13.30717
G1 X158.339 Y103.289 E13.31473
G1 X158.51 Y103.627 E13.32229
G1 X158.607 Y103.993 E13.32985
G1 X158.628 Y104.267 E13.33533
G1 X158.628 Y129.233 E13.83355
G1 X158.588 Y129.61 E13.84112
G1 X158.47 Y129.97 E13.84868
G1 X158.28 Y130.297 E13.85623
G1 X158.101 Y130.506 E13.86172
G1 X157.984 Y130.623 E13.86502
G1 X157.689 Y130.861 E13.87258
G1 X157.351 Y131.032 E13.88014
G1 X156.985 Y131.129 E13.8877
G1 X156.711 Y131.15 E13.89318
G1 X156.275 Y131.15 E13.90188
G1 X156.17 Y131.47 E13.90861
G1 X155.98 Y131.797 E13.91615
G1 X155.801 Y132.006 E13.92164
G1 X155.684 Y132.123 E13.92495
G1 X155.389 Y132.361 E13.93251
G1 X155.051 Y132.532 E13.94007
G1 X154.685 Y132.629 E13.94763
G1 X154.411 Y132.65 E13.95311
G1 X148.245 Y132.65 E14.07616
G1 X147.868 Y132.61 E14.08372
G1 X147.508 Y132.492 E14.09128
G1 X147.181 Y132.302 E14.09883
G1 X146.972 Y132.123 E14.10432
G1 X146.855 Y132.006 E14.10762
G1 X146.617 Y131.711 E14.11519
G1 X146.446 Y131.373 E14.12275
G1 X146.387 Y131.15 E14.12735
G1 X139.275 Y131.15 E14.26928
G1 X139.17 Y131.47 E14.276
G1 X138.98 Y131.797 E14.28355
G1 X138.801 Y132.006 E14.28904
G1 X138.684 Y132.123 E14.29234
G1 X138.389 Y132.361 E14.2999
G1 X138.051 Y132.532 E14.30746
G1 X137.685 Y132.629 E14.31502
G1 X137.411 Y132.65 E14.3205
G1 X131.245 Y132.65 E14.44355
G1 X130.868 Y132.61 E14.45112
G1 X130.508 Y132.492 E14.45868
G1 X130.181 Y132.302 E14.46623
G1 X129.972 Y132.123 E14.47172
G1 X129.855 Y132.006 E14.47502
G1 X129.617 Y131.711 E14.48258
G1 X129.446 Y131.373 E14.49014
G1 X129.387 Y131.15 E14.49475
G1 X128.945 Y131.15 E14.50357
G1 X128.568 Y131.11 E14.51113
G1 X128.208 Y130.992 E14.51869
G1 X127.881 Y130.802 E14.52624
G1 X127.672 Y130.623 E14.53173
G1 X127.555 Y130.506 E14.53503
G1 X127.317 Y130.211 E14.5426
G1 X127.146 Y129.873 E14.55016
G1 X127.049 Y129.507 E14.55771
G1 X127.028 Y129.233 E14.5632
G1 X127.028 Y104.267 E15.06142
G1 X127.068 Y103.89 E15.06899
G1 X127.186 Y103.53 E15.07655
G1 X127.376 Y103.203 E15.08409
G0 F6000 X127.585 Y103.623
G1 F1200 X127.838 Y103.277 E15.09265
G1 X127.955 Y103.16 E15.09595
G1 X128.218 Y102.954 E15.10262
G1 X128.522 Y102.815 E15.10929
G1 X128.945 Y102.75 E15.11783
G1 X156.711 Y102.75 E15.67193
G1 X157.043 Y102.79 E15.6786
G1 X157.355 Y102.907 E15.68525
G1 X157.701 Y103.16 E15.69381
G1 X157.818 Y103.277 E15.69711
G1 X158.024 Y103.54 E15.70377
G1 X158.163 Y103.844 E15.71044
G1 X158.228 Y104.267 E15.71899
G1 X158.228 Y129.233 E16.21721
G1 X158.188 Y129.565 E16.22388
G1 X158.071 Y129.877 E16.23053
G1 X157.818 Y130.223 E16.23909
G1 X157.701 Y130.34 E16.24239
G1 X157.438 Y130.546 E16.24905
G1 X157.134 Y130.685 E16.25573
G1 X156.711 Y130.75 E16.26427
G1 X155.926 Y130.75 E16.27993
G1 X155.888 Y131.065 E16.28626
G1 X155.771 Y131.377 E16.29291
G1 X155.518 Y131.723 E16.30147
G1 X155.401 Y131.84 E16.30477
